Страховая/img/svg/man.svg

<svg width="105" height="113" viewBox="0 0 105 113" fill="none" xmlns="http://www.w3.org/2000/svg">
<path d="M46.809 9.91421C70.8535 12.1708 88.7062 27.4765 93.4472 52.6508C98.1882 77.8252 79.6372 100.456 54.4414 105.201C29.2455 109.946 9.82035 67.8764 5.07932 42.702C0.338287 17.5277 19.7165 7.37158 46.809 9.91421Z" fill="#FFF3DB"/>
<g clip-path="url(#clip0)">
<path d="M59.6026 40.3526L63.176 30.8224L60.4914 29.8162L56.1914 41.2829C56.0279 41.723 56.0882 42.216 56.3561 42.603C56.6242 42.9885 57.0641 43.2193 57.5343 43.2193H63.2675V40.3526H59.6026Z" fill="#D0935A"/>
<path d="M79.0344 27.4525H77.6011V30.3192H79.0344C80.6153 30.3192 81.9011 31.6049 81.9011 33.186C81.9011 34.7669 80.6154 36.0527 79.0344 36.0527H77.6011V38.9192H79.0344C82.1964 38.9192 84.7676 36.3478 84.7676 33.186C84.7676 30.0241 82.1964 27.4525 79.0344 27.4525Z" fill="#D0935A"/>
<path d="M44.6343 30.3192H46.0676V27.4525H44.6343C41.4723 27.4525 38.901 30.0239 38.901 33.1858C38.901 36.3476 41.4723 38.9192 44.6343 38.9192H46.0676V36.0525H44.6343C43.0534 36.0525 41.7676 34.7669 41.7676 33.1858C41.7676 31.6049 43.0534 30.3192 44.6343 30.3192Z" fill="#D0935A"/>
<path d="M60.401 40.3525H54.6678C49.9248 40.3525 46.0677 44.2096 46.0677 48.9525C46.0677 49.7452 46.7099 50.3858 47.501 50.3858H53.2343C57.9772 50.3858 61.8343 46.5287 61.8343 41.7858C61.8343 40.9947 61.1922 40.3525 60.401 40.3525ZM53.2343 47.5193H49.1149C49.7542 45.0496 52.0016 43.2193 54.6676 43.2193H58.787C58.1477 45.6889 55.9003 47.5193 53.2343 47.5193Z" fill="#D0935A"/>
<path d="M66.1343 40.3525H60.401C59.6099 40.3525 58.9677 40.9947 58.9677 41.7858C58.9677 46.5287 62.8248 50.3858 67.5677 50.3858H73.301C74.0936 50.3858 74.7343 49.7452 74.7343 48.9525C74.7343 44.2098 70.8772 40.3525 66.1343 40.3525ZM67.5675 47.5193C64.9 47.5193 62.6526 45.6889 62.0148 43.2193H66.1343C68.8003 43.2193 71.0492 45.0496 71.6856 47.5193H67.5675Z" fill="#D0935A"/>
<path d="M53.2343 36.0528C54.8175 36.0528 56.101 34.7693 56.101 33.1861C56.101 31.6028 54.8175 30.3193 53.2343 30.3193C51.651 30.3193 50.3676 31.6028 50.3676 33.1861C50.3676 34.7693 51.651 36.0528 53.2343 36.0528Z" fill="#D0935A"/>
<path d="M69.0011 36.0528C70.5843 36.0528 71.8678 34.7693 71.8678 33.1861C71.8678 31.6028 70.5843 30.3193 69.0011 30.3193C67.4178 30.3193 66.1343 31.6028 66.1343 33.1861C66.1343 34.7693 67.4178 36.0528 69.0011 36.0528Z" fill="#D0935A"/>
<path d="M71.8675 14.5525H69.0008C68.5263 14.5525 68.082 14.7875 67.8155 15.1804L67.321 15.907C66.094 17.7475 64.0415 18.8497 61.8356 18.8525C59.6255 18.8497 57.5729 17.7488 56.3402 15.897L55.8529 15.1802C55.5863 14.7875 55.1421 14.5524 54.6675 14.5524H51.8008C47.8492 14.5524 44.6341 17.7673 44.6341 21.7191V40.3524C44.6326 42.8119 45.1729 45.293 46.1979 47.5277L48.8038 46.3337C47.9495 44.4718 47.4995 42.4036 47.5008 40.3524V21.7193C47.5008 19.3485 49.4301 17.4193 51.8008 17.4193H53.9093L53.9596 17.4967C55.7168 20.1368 58.6595 21.7149 61.8343 21.7193C65.0048 21.7149 67.946 20.1355 69.6976 17.5081L69.7577 17.4193H71.866C74.2367 17.4193 76.166 19.3485 76.166 21.7193V40.3525C76.166 48.256 69.736 54.6858 61.8328 54.6858C61.8312 54.6858 61.8312 54.6858 61.8299 54.6858C57.1701 54.6858 52.787 52.4112 50.108 48.6013L47.763 50.2496C50.9808 54.8234 56.2384 57.5524 61.8297 57.5524C61.8311 57.5524 61.8326 57.5524 61.8341 57.5524C71.3185 57.5524 79.0341 49.8367 79.0341 40.3524V21.7193C79.0343 17.7676 75.8194 14.5525 71.8675 14.5525Z" fill="#D0935A"/>
<path d="M75.6101 10.4748C72.6359 6.73815 68.0564 4.51929 63.2676 4.51929H60.4009C55.6121 4.51929 51.0326 6.73815 48.057 10.4748C42.6118 12.5044 39.2019 17.8822 39.7236 23.7131L40.3398 30.4498L43.1965 30.1889L42.5802 23.4551C42.1631 18.8067 44.9639 14.5254 49.39 13.0447C49.6651 12.953 49.906 12.7781 50.0809 12.5458C52.5046 9.31513 56.3617 7.38584 60.4009 7.38584H63.2676C67.3052 7.38584 71.1638 9.31513 73.5876 12.5458C73.7624 12.778 74.0033 12.9528 74.2784 13.0447C78.7046 14.5254 81.5053 18.8067 81.0882 23.4522L80.472 30.1889L83.3271 30.4498L83.9434 23.7102C84.4666 17.8822 81.0568 12.5044 75.6101 10.4748Z" fill="#D0935A"/>
<path d="M73.3008 24.586H50.3676V27.4527H73.3008V24.586Z" fill="#D0935A"/>
<path d="M51.8024 53.2526V58.6104C51.7995 59.7414 50.9509 60.7089 49.8358 60.8607L41.4923 61.9658C35.1111 62.8201 30.3008 68.3168 30.3008 74.7526V90.5193H33.1676V74.7526C33.1676 69.7459 36.9086 65.4703 41.8707 64.8081L50.2184 63.7031C52.7497 63.3576 54.6632 61.1704 54.6689 58.6133V53.2526H51.8024Z" fill="#D0935A"/>
<path d="M82.1748 61.9659L73.84 60.8608C72.7191 60.709 71.8721 59.7413 71.8692 58.6134V53.2527H69.0025V58.6163C69.0082 61.1704 70.9204 63.3577 73.4587 63.7032L81.7963 64.8083C86.76 65.4704 90.501 69.746 90.501 74.7527V90.5192H93.3677V74.7525C93.3675 68.317 88.5574 62.8187 82.1748 61.9659Z" fill="#D0935A"/>
<path d="M44.6343 79.0526H41.7676V90.5193H44.6343V79.0526Z" fill="#D0935A"/>
<path d="M81.901 79.0526H79.0342V90.5193H81.901V79.0526Z" fill="#D0935A"/>
<path d="M70.7883 60.9081L61.8343 71.1421L52.8802 60.9096L50.723 62.7959L60.7562 74.2626C61.0272 74.575 61.4199 74.7527 61.8341 74.7527C62.2483 74.7527 62.641 74.575 62.9135 74.2611L72.9467 62.7944L70.7883 60.9081Z" fill="#D0935A"/>
<path d="M61.5993 71.9047L54.0944 73.156L48.8111 61.2694L46.1925 62.4348L51.9258 75.3348C52.1579 75.858 52.6754 76.1862 53.2344 76.1862C53.3119 76.1862 53.3906 76.179 53.4709 76.166L62.0709 74.7328L61.5993 71.9047Z" fill="#D0935A"/>
<path d="M74.859 61.2692L69.5757 73.1559L62.0707 71.9045L61.5992 74.7324L70.1992 76.1657C70.278 76.1786 70.3569 76.1857 70.4342 76.1857C70.9947 76.1857 71.5107 75.8575 71.7457 75.3343L77.479 62.4343L74.859 61.2692Z" fill="#D0935A"/>
<path d="M63.2677 73.3193H60.401V90.5193H63.2677V73.3193Z" fill="#D0935A"/>
<path d="M43.201 81.9193H31.7343C30.9432 81.9193 30.301 82.5599 30.301 83.3525V90.5192H33.1677V84.786H41.7677V90.5192H44.6343V83.3525C44.6343 82.5599 43.9922 81.9193 43.201 81.9193Z" fill="#D0935A"/>
<path d="M91.9342 81.9193H80.4675C79.6749 81.9193 79.0342 82.5599 79.0342 83.3525V90.5192H81.901V84.786H90.501V90.5192H93.3677V83.3525C93.3675 82.5599 92.7269 81.9193 91.9342 81.9193Z" fill="#D0935A"/>
<path d="M56.8175 77.6193C55.6322 77.6193 54.6675 78.584 54.6675 79.7693C54.6675 80.9547 55.6322 81.9193 56.8175 81.9193C58.0029 81.9193 58.9675 80.9547 58.9675 79.7693C58.9675 78.584 58.0029 77.6193 56.8175 77.6193ZM56.8175 80.486C56.422 80.486 56.1008 80.1635 56.1008 79.7693C56.1008 79.3751 56.4218 79.0526 56.8175 79.0526C57.2131 79.0526 57.5343 79.3751 57.5343 79.7693C57.5343 80.1635 57.2133 80.486 56.8175 80.486Z" fill="#D0935A"/>
</g>
<defs>
<clipPath id="clip0">
<rect width="86" height="86" fill="white" transform="translate(18.8343 4.51929)"/>
</clipPath>
</defs>
</svg>

<svg width="105" height="113" fill="none" xmlns="http://www.w3.org/2000/svg"><path d="M46.809 9.914c24.044 2.257 41.897 17.563 46.638 42.737 4.741 25.174-13.81 47.805-39.006 52.55-25.196 4.745-44.62-37.325-49.362-62.499C.34 17.528 19.716 7.372 46.81 9.914z" fill="#FFF3DB"/><g clip-path="url(#clip0)" fill="#D0935A"><path d="M59.603 40.353l3.573-9.53-2.685-1.007-4.3 11.467a1.436 1.436 0 001.343 1.936h5.733v-2.866h-3.664zm19.431-12.9h-1.433v2.866h1.433a2.87 2.87 0 012.867 2.867 2.87 2.87 0 01-2.867 2.867h-1.433v2.866h1.433a5.739 5.739 0 005.734-5.733 5.74 5.74 0 00-5.734-5.733zm-34.4 2.867h1.434v-2.867h-1.434a5.739 5.739 0 00-5.733 5.733 5.74 5.74 0 005.733 5.733h1.434v-2.866h-1.434a2.87 2.87 0 01-2.866-2.867 2.87 2.87 0 012.866-2.867z"/><path d="M60.401 40.352h-5.733c-4.743 0-8.6 3.858-8.6 8.6 0 .793.642 1.434 1.433 1.434h5.733c4.743 0 8.6-3.857 8.6-8.6 0-.791-.642-1.434-1.433-1.434zm-7.167 7.167h-4.12a5.747 5.747 0 015.554-4.3h4.119a5.747 5.747 0 01-5.553 4.3z"/><path d="M66.134 40.352h-5.733c-.791 0-1.433.643-1.433 1.434 0 4.743 3.857 8.6 8.6 8.6H73.3c.793 0 1.433-.64 1.433-1.434 0-4.742-3.857-8.6-8.6-8.6zm1.433 7.167a5.744 5.744 0 01-5.552-4.3h4.12a5.742 5.742 0 015.55 4.3h-4.118zM53.234 36.053a2.867 2.867 0 100-5.734 2.867 2.867 0 000 5.734zm15.767 0a2.867 2.867 0 100-5.734 2.867 2.867 0 000 5.734z"/><path d="M71.868 14.553H69c-.475 0-.919.234-1.186.627l-.494.727a6.596 6.596 0 01-5.485 2.945 6.598 6.598 0 01-5.496-2.955l-.487-.717a1.433 1.433 0 00-1.186-.628H51.8a7.175 7.175 0 00-7.167 7.167v18.633a17.315 17.315 0 001.564 7.176l2.606-1.194a14.42 14.42 0 01-1.303-5.982V21.72c0-2.37 1.93-4.3 4.3-4.3h2.108l.05.078a9.453 9.453 0 0015.738.011l.06-.089h2.109c2.37 0 4.3 1.93 4.3 4.3v18.633c0 7.904-6.43 14.334-14.333 14.334h-.003c-4.66 0-9.043-2.275-11.722-6.085l-2.345 1.649a17.216 17.216 0 0014.067 7.302h.004c9.484 0 17.2-7.715 17.2-17.2V21.72c0-3.951-3.215-7.167-7.166-7.167z"/><path d="M75.61 10.475a15.85 15.85 0 00-12.342-5.956H60.4a15.854 15.854 0 00-12.344 5.956 12.856 12.856 0 00-8.333 13.238l.616 6.737 2.856-.261-.616-6.734a9.999 9.999 0 016.81-10.41c.275-.092.516-.267.69-.5a12.963 12.963 0 0110.32-5.16h2.868c4.037 0 7.896 1.93 10.32 5.16.174.233.415.408.69.5a9.997 9.997 0 016.81 10.407l-.616 6.737 2.855.26.616-6.739a12.85 12.85 0 00-8.333-13.235z"/><path d="M73.3 24.586H50.369v2.867H73.3v-2.867zM51.802 53.253v5.357a2.287 2.287 0 01-1.966 2.25l-8.344 1.106c-6.38.854-11.191 6.35-11.191 12.787v15.766h2.867V74.753c0-5.007 3.74-9.283 8.703-9.945l8.347-1.105a5.168 5.168 0 004.45-5.09v-5.36h-2.866zm30.373 8.713L73.84 60.86a2.285 2.285 0 01-1.97-2.248v-5.36h-2.868v5.363a5.167 5.167 0 004.457 5.087l8.337 1.105c4.964.662 8.705 4.938 8.705 9.945v15.766h2.867V74.752c0-6.435-4.81-11.933-11.193-12.786zM44.634 79.053h-2.866v11.466h2.866V79.053zm37.267 0h-2.867v11.466h2.867V79.053z"/><path d="M70.788 60.908l-8.954 10.234L52.88 60.91l-2.157 1.886 10.033 11.467a1.429 1.429 0 002.158-.002l10.033-11.467-2.159-1.886z"/><path d="M61.6 71.905l-7.506 1.251-5.283-11.887-2.618 1.166 5.733 12.9a1.433 1.433 0 001.545.831l8.6-1.433-.472-2.828z"/><path d="M74.859 61.27l-5.283 11.886-7.505-1.252-.472 2.828 8.6 1.434a1.438 1.438 0 001.546-.831l5.734-12.9-2.62-1.166z"/><path d="M63.268 73.32H60.4v17.2h2.867v-17.2zm-20.067 8.6H31.734c-.79 0-1.433.64-1.433 1.433v7.166h2.867v-5.733h8.6v5.733h2.866v-7.166c0-.793-.642-1.434-1.433-1.434zm48.733 0H80.468c-.793 0-1.434.64-1.434 1.433v7.166h2.867v-5.733h8.6v5.733h2.867v-7.166c0-.793-.641-1.434-1.434-1.434zm-35.116-4.3c-1.186 0-2.15.964-2.15 2.15 0 1.185.964 2.15 2.15 2.15 1.185 0 2.15-.965 2.15-2.15 0-1.186-.965-2.15-2.15-2.15zm0 2.866a.718.718 0 010-1.433c.395 0 .716.322.716.716a.718.718 0 01-.716.717z"/></g><defs><clipPath id="clip0"><path fill="#fff" transform="translate(18.834 4.52)" d="M0 0h86v86H0z"/></clipPath></defs></svg>
